X:1
T:"Leck mich im Arsch!"
T:KV 231: Kanon für sechs Stimmen
T:Ursprünglichen Text
T:WOLFGANG AMADEUS MOZART
T:"Leck mich im Arsch!"
L:1/8
Q:1/4=200
M:4/4
K:Bb
V:1 alto1 nm="Stimme"
V:1
"^1.""^Prestissimo" B8 | c8 | A8 | B8 |"^2." z4 B4- | B4 A4 | z4 e4- | e4 d4 |"^3." d4 f4 | e4 c4 | %10
w: Leck|mich|im|Arsch!|Laßt|* uns|froh|* sein!|Mur- ren|ist ver-|
 f4 F4 | z4 B2 A2 |"^4." G2 F2 E2 D2 | C2 C2 F2 G2 | F2 E2 D2 C2 | B,2 ff ffff |"^5." (f2 B2) B4 | %17
w: ge- bens!|Kur- ren,|Brum- men ist ver-|ge- bens, ist das|wah- re Kreuz de|Le- bens, das Brum- men ist ver-|ge- * bens,|
 z2 ee eeee | (e2 A2) A4 | z2 (Bc) (de) f2 |"^6." G2 gg gggg | (g2 c2) c4 | z2 ff ffff | %23
w: Kur- ren, Brum- men ist ver-|ge- * bens,|ver- * ge- * bens!|Drum laßt uns froh und frö- lich,|froh * sein!|Laßt uns froh und fröh- lich,|
 (f2 B2) B4 |] %24
w: froh * sein!|

